svg/information_slab_circle.svg

<svg xmlns="http://www.w3.org/2000/svg" viewBox="0 0 24 24"><path d="M12 22c5.5 0 10-4.5 10-10S17.5 2 12 2 2 6.5 2 12s4.5 10 10 10M11 7h2v2h-2zm3 10h-4v-2h1v-2h-1v-2h3v4h1z"/></svg>

<svg xmlns="http://www.w3.org/2000/svg" id="mdi-information-slab-circle" viewBox="0 0 24 24"><path d="M12 22C17.5 22 22 17.5 22 12C22 6.5 17.5 2 12 2C6.5 2 2 6.5 2 12C2 17.5 6.5 22 12 22M11 7H13V9H11V7M14 17H10V15H11V13H10V11H13V15H14V17Z" /></svg>
